svg/sport/playground_line.svg

<?xml version="1.0" encoding="UTF-8"?>
<svg width="24px" height="24px" viewBox="0 0 24 24" version="1.1" xmlns="http://www.w3.org/2000/svg" xmlns:xlink="http://www.w3.org/1999/xlink">
    <title>playground_line</title>
    <g id="Icon" stroke="none" stroke-width="1" fill="none" fill-rule="evenodd">
        <g id="Sport" transform="translate(-672.000000, 0.000000)">
            <g id="playground_line" transform="translate(672.000000, 0.000000)">
                <path d="M24,0 L24,24 L0,24 L0,0 L24,0 Z M12.5935,23.2578 L12.5819,23.2595 L12.5109,23.295 L12.4919,23.2987 L12.4767,23.295 L12.4057,23.2595 C12.3958,23.2564 12.387,23.259 12.3821,23.2649 L12.378,23.2758 L12.3609,23.7031 L12.3659,23.7235 L12.3769,23.7357 L12.4805,23.8097 L12.4953,23.8136 L12.5071,23.8097 L12.6107,23.7357 L12.6233,23.7197 L12.6267,23.7031 L12.6096,23.2758 C12.6076,23.2657 12.601,23.2593 12.5935,23.2578 Z M12.8584,23.1453 L12.8445,23.1473 L12.6598,23.2397 L12.6499,23.2499 L12.6472,23.2611 L12.6651,23.6906 L12.6699,23.7034 L12.6784,23.7105 L12.8793,23.8032 C12.8914,23.8069 12.9022,23.803 12.9078,23.7952 L12.9118,23.7812 L12.8777,23.1665 C12.8753,23.1546 12.8674,23.147 12.8584,23.1453 Z M12.143,23.1473 C12.1332,23.1424 12.1222,23.1453 12.1156,23.1526 L12.1099,23.1665 L12.0758,23.7812 C12.0751,23.7927 12.0828,23.8019 12.0926,23.8046 L12.1083,23.8032 L12.3092,23.7105 L12.3186,23.7024 L12.3225,23.6906 L12.3404,23.2611 L12.3372,23.2485 L12.3278,23.2397 L12.143,23.1473 Z" id="MingCute" fill-rule="nonzero"></path>
                <path d="M20,5 C21.1046,5 22,5.89543 22,7 L22,17 C22,18.1046 21.1046,19 20,19 L4,19 C2.89543,19 2,18.1046 2,17 L2,7 C2,5.89543 2.89543,5 4,5 L20,5 Z M20,7 L13,7 L13,9.17071 C14.1652,9.58254 15,10.6938 15,12 C15,13.24089 14.246593,14.3058828 13.1722389,14.7623468 L13,14.8293 L13,17 L20,17 L20,16 L18,16 C16.9456091,16 16.0818322,15.18415 16.0054856,14.1492661 L16,14 L16,10 C16,8.94563773 16.81585,8.08183483 17.8507339,8.00548573 L18,8 L20,8 L20,7 Z M11,7 L4,7 L4,8 L6,8 C7.05436227,8 7.91816517,8.81587733 7.99451427,9.85073759 L8,10 L8,14 C8,15.0543909 7.18412267,15.9181678 6.14926241,15.9945144 L6,16 L4,16 L4,17 L11,17 L11,14.8293 C9.83481,14.4175 9,13.3062 9,12 C9,10.75911 9.75341602,9.69415335 10.8277624,9.23766716 L11,9.17071 L11,7 Z M20,10 L18,10 L18,14 L20,14 L20,10 Z M6,10 L4,10 L4,14 L6,14 L6,10 Z M12,11 C11.4477,11 11,11.4477 11,12 C11,12.5523 11.4477,13 12,13 C12.5523,13 13,12.5523 13,12 C13,11.4477 12.5523,11 12,11 Z" id="形状" fill="#09244B"></path>
            </g>
        </g>
    </g>
</svg>

<svg xmlns="http://www.w3.org/2000/svg" width="24" height="24"><g fill="none" fill-rule="evenodd"><path d="M24 0v24H0V0h24ZM12.594 23.258l-.012.002-.071.035-.02.004-.014-.004-.071-.036c-.01-.003-.019 0-.024.006l-.004.01-.017.428.005.02.01.013.104.074.015.004.012-.004.104-.074.012-.016.004-.017-.017-.427c-.002-.01-.009-.017-.016-.018Zm.264-.113-.014.002-.184.093-.01.01-.003.011.018.43.005.012.008.008.201.092c.012.004.023 0 .029-.008l.004-.014-.034-.614c-.003-.012-.01-.02-.02-.022Zm-.715.002a.023.023 0 0 0-.027.006l-.006.014-.034.614c0 .012.007.02.017.024l.015-.002.201-.093.01-.008.003-.011.018-.43-.003-.012-.01-.01-.184-.092Z"/><path fill="#09244B" d="M20 5a2 2 0 0 1 2 2v10a2 2 0 0 1-2 2H4a2 2 0 0 1-2-2V7a2 2 0 0 1 2-2h16Zm0 2h-7v2.17a3.001 3.001 0 0 1 .172 5.592L13 14.83V17h7v-1h-2a2 2 0 0 1-1.995-1.85L16 14v-4a2 2 0 0 1 1.85-1.995L18 8h2V7Zm-9 0H4v1h2a2 2 0 0 1 1.995 1.85L8 10v4a2 2 0 0 1-1.85 1.995L6 16H4v1h7v-2.17a3.001 3.001 0 0 1-.172-5.592L11 9.17V7Zm9 3h-2v4h2v-4ZM6 10H4v4h2v-4Zm6 1a1 1 0 1 0 0 2 1 1 0 0 0 0-2Z"/></g></svg>
